X: 1
T: As Time Goes By
C: Herman Hupfeld 1931
O: "Casablanca"
M: 4/4
L: 1/8
K: Eb
G |\
  "Fm"A>G FE "Bb7"F3 G | "Gm"B>A GF "Bb7"A3 B |\
  "Eb"e>d cB c4 | z4 "Gm"z2 d2  |
w: You must re-mem-ber this, a kiss is still a kiss, a sigh is just a sigh; The
w: And when two lov-ers woo, they still say "I love you", on that you can re-ly; No
%
  "F7"f>e dc d2 e2 | "Bb7" B3 B "Fm"E2 "Bb7"F2 |\
|1 "Eb"G8- | G4 z3 :|2 "Eb"E4- "Ab"E4- | "Abm"E4 "Eb7"z4 |]
w: fun-da-men-tal things ap-ply, as time goes by.
w: mat-ter what the fu-ture brings as time goes | | | by.
%
[| "Ab"EF Ec- c2 c2 | "C7"c_d c=B c4 |\
  "Fm"FG Fc- c2 c2 | "F7"cd c=B c4 |
w:Moon-light and love_ songs ne-ver  out of date. Hearts full of pas-_sion, jeal-ou-sy and hate.
%
  "Cm"GA Ge- "Ab7"e2 e2 | "F7"e>d ed f2 d2 |\
  "Bb7"c2 c2 "C7/E"G2 G2 | "Fm"B4 "C7"z3 G ||
w: Wo-man mneeds man_ and man must have his mate, that no on can de- ny. It's
%
  "Fm"A>G FE "Bb7"FF2 G | "Gm"B>A GF "Bb7"AA2 B |\
  "Eb"e>d cB c4 | z6 "Gm"d2  |
w: still the same old sto-ry, a fight for love and glo-ry, a case of do or die! The
%
  "F7"f>e dc d2 e2 | "Eb" B2 B4 "Edim"G2 |\
  "Fm"B4 "Bb7"B4 | "Eb"e7 |]
w: world will al-ways wel-come lov-ers, as time goes by.


